packages/kaspersky-hexa-ui-icons/src/iconsSVGs/24/Group.svg

<svg width="24" height="24" viewBox="0 0 24 24" fill="none" xmlns="http://www.w3.org/2000/svg">
<path fill-rule="evenodd" clip-rule="evenodd" d="M3 3C3 1.89543 3.89543 1 5 1H8C9.10457 1 10 1.89543 10 3V4H13C14.6569 4 16 5.34315 16 7V11H19.5858L18.2929 9.70711C17.9024 9.31658 17.9024 8.68342 18.2929 8.29289C18.6834 7.90237 19.3166 7.90237 19.7071 8.29289L22.7071 11.2929C23.0976 11.6834 23.0976 12.3166 22.7071 12.7071L19.7071 15.7071C19.3166 16.0976 18.6834 16.0976 18.2929 15.7071C17.9024 15.3166 17.9024 14.6834 18.2929 14.2929L19.5858 13H16V17C16 18.6569 14.6569 20 13 20H10V21C10 22.1046 9.10457 23 8 23H5C3.89543 23 3 22.1046 3 21V18C3 16.8954 3.89543 16 5 16H8C9.10457 16 10 16.8954 10 18H13C13.5523 18 14 17.5523 14 17V13H10V13.5C10 14.6046 9.10457 15.5 8 15.5H5C3.89543 15.5 3 14.6046 3 13.5V10.5C3 9.39543 3.89543 8.5 5 8.5H8C9.10457 8.5 10 9.39543 10 10.5V11H14V7C14 6.44772 13.5523 6 13 6H10C10 7.10457 9.10457 8 8 8H5C3.89543 8 3 7.10457 3 6V3ZM8 3H5V6H8V3ZM8 10.5H5V13.5H8V10.5ZM8 18H5V21H8V18Z" fill="black"/>
</svg>

<svg xmlns="http://www.w3.org/2000/svg" width="24" height="24" fill="none" viewBox="0 0 24 24"><path fill="#000" fill-rule="evenodd" d="M3 3c0-1.1046.8954-2 2-2h3c1.1046 0 2 .8954 2 2v1h3c1.6569 0 3 1.3431 3 3v4h3.5858l-1.2929-1.2929c-.3905-.3905-.3905-1.0237 0-1.4142s1.0237-.3905 1.4142 0l3 3c.3905.3905.3905 1.0237 0 1.4142l-3 3c-.3905.3905-1.0237.3905-1.4142 0s-.3905-1.0237 0-1.4142L19.5858 13H16v4c0 1.6569-1.3431 3-3 3h-3v1c0 1.1046-.8954 2-2 2H5c-1.1046 0-2-.8954-2-2v-3c0-1.1046.8954-2 2-2h3c1.1046 0 2 .8954 2 2h3c.5523 0 1-.4477 1-1v-4h-4v.5c0 1.1046-.8954 2-2 2H5c-1.1046 0-2-.8954-2-2v-3c0-1.1046.8954-2 2-2h3c1.1046 0 2 .8954 2 2v.5h4V7c0-.5523-.4477-1-1-1h-3c0 1.1046-.8954 2-2 2H5c-1.1046 0-2-.8954-2-2zm5 0H5v3h3zm0 7.5H5v3h3zM8 18H5v3h3z"/></svg>
